assets/icons/folder-gemini-ai.svg

<svg width="32" height="32" viewBox="0 0 32 32" fill="none" xmlns="http://www.w3.org/2000/svg">
<path d="M13.8 7.5L12.5 6.4C12.2 6.2 11.7 6 11.3 6H4C2.9 6 2 6.9 2 8V24C2 25.1 2.9 26 4 26H28C29.1 26 30 25.1 30 24V10C30 8.9 29.1 8 28 8H15.1C14.6 8 14.2 7.9 13.8 7.5Z" fill="#42A5F5"/>
<path d="M32 22.02C29.4053 22.1793 26.9583 23.2819 25.1201 25.1201C23.2819 26.9583 22.1793 29.4053 22.02 32H21.98C21.821 29.4052 20.7185 26.9581 18.8802 25.1198C17.0419 23.2815 14.5948 22.179 12 22.02V21.98C14.5948 21.821 17.0419 20.7185 18.8802 18.8802C20.7185 17.0419 21.821 14.5948 21.98 12H22.02C22.1793 14.5947 23.2819 17.0417 25.1201 18.8799C26.9583 20.7181 29.4053 21.8207 32 21.98V22.02Z" fill="#BBDEFB"/>
</svg>

<svg xmlns="http://www.w3.org/2000/svg" fill="none" viewBox="0 0 32 32"><path fill="#42a5f5" d="m13.8 7.5-1.3-1.1c-.3-.2-.8-.4-1.2-.4H4c-1.1 0-2 .9-2 2v16c0 1.1.9 2 2 2h24c1.1 0 2-.9 2-2V10c0-1.1-.9-2-2-2H15.1c-.5 0-.9-.1-1.3-.5"/><path fill="#bbdefb" d="M32 22.02A10.653 10.653 0 0 0 22.02 32h-.04A10.65 10.65 0 0 0 12 22.02v-.04A10.65 10.65 0 0 0 21.98 12h.04A10.653 10.653 0 0 0 32 21.98z"/></svg>
